build/img/copirate.svg

<svg width="292" height="293" viewBox="0 0 292 293" fill="none" xmlns="http://www.w3.org/2000/svg">
<path d="M146 23.8971C178.757 23.8971 209.557 36.6517 232.718 59.819C255.885 82.9804 268.64 113.781 268.64 146.537C268.64 179.294 255.885 210.094 232.718 233.255C209.557 256.423 178.757 269.177 146 269.177C113.243 269.177 82.4433 256.423 59.2818 233.255C36.1146 210.094 23.36 179.294 23.36 146.537C23.36 113.781 36.1146 82.9804 59.2818 59.819C82.4433 36.6517 113.243 23.8971 146 23.8971ZM146 0.537109C65.3671 0.537109 0 65.9042 0 146.537C0 227.17 65.3671 292.537 146 292.537C226.633 292.537 292 227.17 292 146.537C292 65.9042 226.633 0.537109 146 0.537109Z" fill="white"/>
<path d="M146 207.857C112.186 207.857 84.68 180.351 84.68 146.537C84.68 112.724 112.186 85.2174 146 85.2174C168.653 85.2174 188.474 97.5632 199.091 115.883L219.315 104.203C204.657 78.9102 177.285 61.8574 146 61.8574C99.3092 61.8574 61.32 99.8466 61.32 146.537C61.32 193.228 99.3092 231.217 146 231.217C177.285 231.217 204.657 214.165 219.321 188.866L199.097 177.186C188.474 195.512 168.653 207.857 146 207.857Z" fill="white"/>
</svg>

<svg width="292" height="293" fill="none" xmlns="http://www.w3.org/2000/svg"><path d="M146 23.897c32.757 0 63.557 12.755 86.718 35.922 23.167 23.161 35.922 53.962 35.922 86.718 0 32.757-12.755 63.557-35.922 86.718-23.161 23.168-53.961 35.922-86.718 35.922-32.757 0-63.557-12.754-86.718-35.922-23.167-23.161-35.922-53.961-35.922-86.718 0-32.756 12.755-63.557 35.922-86.718C82.443 36.652 113.243 23.897 146 23.897zm0-23.36c-80.633 0-146 65.367-146 146s65.367 146 146 146 146-65.367 146-146-65.367-146-146-146z" fill="#fff"/><path d="M146 207.857c-33.814 0-61.32-27.506-61.32-61.32 0-33.813 27.506-61.32 61.32-61.32 22.653 0 42.474 12.346 53.091 30.666l20.224-11.68C204.657 78.91 177.285 61.857 146 61.857c-46.69 0-84.68 37.99-84.68 84.68 0 46.691 37.99 84.68 84.68 84.68 31.285 0 58.657-17.052 73.321-42.351l-20.224-11.68c-10.623 18.326-30.444 30.671-53.097 30.671z" fill="#fff"/></svg>
